static/logos/vowel-glyph-color.svg

<svg width="50" height="55" viewBox="0 0 50 55" fill="none" xmlns="http://www.w3.org/2000/svg">
<path fill-rule="evenodd" clip-rule="evenodd" d="M43.3792 44.556H4.57698C3.81912 44.556 3.06127 45.1642 3.06127 46.0767V52.4635C3.06127 53.2237 3.66756 53.9842 4.57698 53.9842H43.3792C44.1371 53.9842 44.8948 53.3758 44.8948 52.4635V46.0767C44.8948 45.1642 44.2885 44.556 43.3792 44.556ZM47.9262 2.12902C48.2294 1.67282 48.0779 1.21661 47.6231 1.06454C47.4717 0.912476 47.32 0.912476 47.1683 0.912476H36.1037C35.8006 0.912476 35.4975 1.06454 35.3458 1.36868L25.039 22.9623C24.8875 23.4185 24.2812 23.5706 23.8265 23.4185C23.675 23.2665 23.5233 23.2665 23.3717 22.9623L13.3681 1.36868C13.2165 1.06454 12.9133 0.912476 12.6102 0.912476H0.939279C0.181421 0.912476 -0.273292 1.52075 0.181421 2.28108L18.5215 36.8004C20.0372 39.8419 22.1592 40.7542 24.1296 40.7542C26.1 40.7542 28.0704 39.8419 29.7377 36.8004L47.9262 2.12902Z" fill="#6B4CFF"/>
</svg>

<svg xmlns="http://www.w3.org/2000/svg" width="58.182" height="64" fill="none" viewBox="0 0 50 55"><path fill="#6B4CFF" fill-rule="evenodd" d="M43.38 44.556H4.576c-.758 0-1.516.608-1.516 1.52v6.388c0 .76.607 1.52 1.516 1.52h38.802c.758 0 1.516-.608 1.516-1.52v-6.387c0-.913-.607-1.521-1.516-1.521Zm4.546-42.427c.303-.456.152-.912-.303-1.064-.151-.153-.303-.153-.455-.153H36.104a.833.833 0 0 0-.758.457L25.039 22.962c-.152.457-.758.609-1.213.457-.151-.152-.303-.152-.454-.457L13.368 1.37a.833.833 0 0 0-.758-.457H.94c-.759 0-1.213.609-.759 1.37L18.521 36.8c1.516 3.042 3.638 3.954 5.609 3.954 1.97 0 3.94-.912 5.608-3.954L47.926 2.13Z" clip-rule="evenodd"/></svg>
